public/samples/sample_warm_look.cube
# Generated by LUT Builder (Nunik Co.)
TITLE "warm_look_sample"
LUT_3D_SIZE 33
DOMAIN_MIN 0.0 0.0 0.0
DOMAIN_MAX 1.0 1.0 1.0
0.065951 0.015381 0.000000
0.071650 0.015307 0.000000
0.077590 0.015224 0.000000
0.085546 0.014922 0.000000
0.096779 0.012622 0.000000
0.112077 0.005969 0.000000
0.128854 0.000000 0.000000
0.144863 0.000000 0.000000
0.160318 0.000000 0.000000
0.175803 0.000000 0.000000
0.408358 0.000000 0.000000
0.439527 0.000000 0.000000
0.468751 0.000000 0.000000
0.501907 0.000000 0.000000
0.531147 0.000000 0.000000
0.562351 0.000000 0.000000
0.594536 0.000000 0.000000
0.625679 0.000000 0.000000
0.655963 0.000000 0.000000
0.687164 0.000000 0.000000
0.720322 0.000000 0.000000
0.751517 0.000000 0.000000
0.784056 0.000000 0.000000
0.803540 0.000000 0.000000
0.819099 0.000000 0.000000
0.834660 0.000000 0.000000
0.850225 0.000000 0.000000
0.865791 0.000000 0.000000
0.881358 0.000000 0.000000
0.896926 0.000000 0.000000
0.909804 0.000000 0.000000
0.909804 0.000000 0.000000
0.909804 0.000000 0.000000
0.065760 0.029346 0.000000
0.071474 0.029289 0.000000
0.077430 0.029224 0.000000
0.085921 0.028577 0.000000
0.097927 0.025940 0.000000
0.113503 0.020091 0.000000
0.129422 0.014825 0.000000
0.144840 0.012868 0.000000
0.160267 0.011376 0.000000
0.175750 0.009852 0.000000
0.408306 0.008282 0.000000
0.439477 0.006653 0.000000
0.468703 0.004954 0.000000
0.501861 0.003179 0.000000
0.531103 0.001321 0.000000
0.562309 0.000000 0.000000
0.594497 0.000000 0.000000
0.625642 0.000000 0.000000
0.655928 0.000000 0.000000
0.687130 0.000000 0.000000
0.720290 0.000000 0.000000
0.751486 0.000000 0.000000
0.784027 0.000000 0.000000
0.803512 0.000000 0.000000
0.819074 0.000000 0.000000
0.834638 0.000000 0.000000
0.850205 0.000000 0.000000
0.865774 0.000000 0.000000
0.881343 0.000000 0.000000
0.896913 0.000000 0.000000
0.909804 0.000000 0.000000
0.909804 0.000000 0.000000
0.909804 0.000000 0.000000
0.065542 0.041028 0.000000
0.071274 0.040984 0.000000
0.077521 0.040788 0.000000
0.086663 0.040074 0.000000
0.099199 0.038334 0.000000
0.114409 0.035603 0.000000
0.129572 0.034109 0.000000
0.144860 0.032793 0.000000
0.160258 0.031451 0.000000
0.175725 0.030068 0.000000
0.408271 0.028627 0.000000
0.439438 0.027110 0.000000
0.468662 0.025495 0.000000
0.501819 0.023763 0.000000
0.531062 0.021886 0.000000
0.562269 0.019830 0.000000
0.594457 0.017628 0.000000
0.625604 0.015342 0.000000
0.655891 0.012969 0.000000
0.687095 0.010504 0.000000
0.720256 0.007942 0.000000
0.751454 0.005280 0.000000
0.783995 0.002515 0.000000
0.803482 0.000000 0.000000
0.819047 0.000000 0.000000
0.834615 0.000000 0.000000
0.850185 0.000000 0.000000
0.865756 0.000000 0.000000
0.881327 0.000000 0.000000
0.896899 0.000000 0.000000
0.909804 0.000000 0.000000
0.909804 0.000000 0.000000
0.909804 0.000000 0.000000
0.064754 0.054760 0.000000
0.070701 0.055010 0.000000
0.077463 0.055150 0.000000
0.087224 0.055072 0.000000
0.100349 0.054360 0.000000
0.114869 0.053308 0.000000
0.129801 0.052231 0.000000
0.144981 0.051139 0.000000
0.160312 0.050037 0.000000
0.175738 0.048921 0.000000
0.408259 0.047784 0.000000
0.439409 0.046621 0.000000
0.468623 0.045421 0.000000
0.501775 0.044176 0.000000
0.531015 0.042877 0.000000
0.562220 0.041514 0.000000
0.594409 0.040077 0.000000
0.625555 0.038554 0.000000
0.655843 0.036934 0.000000
0.687048 0.035201 0.000000
0.720211 0.033339 0.000000
0.751410 0.031328 0.000000
0.783953 0.029144 0.000000
0.803442 0.026753 0.000000
0.819012 0.024105 0.000000
0.834585 0.021138 0.000000
0.850158 0.017815 0.000000
0.865732 0.014339 0.000000
0.881306 0.010737 0.000000
0.896880 0.007006 0.000000
0.909804 0.003144 0.000000
0.909804 0.000000 0.000000
0.909804 0.000000 0.000000
0.061797 0.072451 0.000000
0.068899 0.072629 0.000000
0.076881 0.072585 0.000000
0.088187 0.072076 0.000000
0.101440 0.071288 0.000000
0.115572 0.070428 0.000000
0.130245 0.069523 0.000000
0.145253 0.068591 0.000000
0.160472 0.067643 0.000000
0.175823 0.066682 0.000000
0.408295 0.065709 0.000000
0.439412 0.064723 0.000000
0.468605 0.063719 0.000000
0.501742 0.062693 0.000000
0.530972 0.061641 0.000000
0.562172 0.060557 0.000000
0.594356 0.059436 0.000000
0.625501 0.058273 0.000000
0.655788 0.057061 0.000000
0.686993 0.055795 0.000000
0.720156 0.054469 0.000000
0.751356 0.053075 0.000000
0.783900 0.051607 0.000000
0.803396 0.050050 0.000000
0.818971 0.048395 0.000000
0.834548 0.046631 0.000000
0.850126 0.044745 0.000000
0.865704 0.042720 0.000000
0.881281 0.040539 0.000000
0.896858 0.038179 0.000000
0.909804 0.035610 0.000000
0.909804 0.032795 0.000000
0.909804 0.029685 0.000000
0.061297 0.089627 0.000000
0.070147 0.089323 0.000000
0.079153 0.088924 0.000000
0.090249 0.088402 0.000000
0.102900 0.087776 0.000000
0.116582 0.087071 0.000000
0.130932 0.086310 0.000000
0.145713 0.085511 0.000000
0.160772 0.084686 0.000000
0.176013 0.083843 0.000000
0.408407 0.082986 0.000000
0.439470 0.082117 0.000000
0.468625 0.081237 0.000000
0.501735 0.080343 0.000000
0.530947 0.079433 0.000000
0.562133 0.078505 0.000000
0.594309 0.077555 0.000000
0.625448 0.076580 0.000000
0.655731 0.075578 0.000000
0.686934 0.074543 0.000000
0.720096 0.073473 0.000000
0.751296 0.072364 0.000000
0.783846 0.071209 0.000000
0.803347 0.070002 0.000000
0.818928 0.068741 0.000000
0.834510 0.067418 0.000000
0.850091 0.066030 0.000000
0.865673 0.064571 0.000000
0.881254 0.063033 0.000000
0.896833 0.061412 0.000000
0.909804 0.059698 0.000000
0.909804 0.057882 0.000000
0.909804 0.055958 0.000000
0.065639 0.105481 0.000000
0.073951 0.105195 0.000000
0.082234 0.104890 0.000000
0.092631 0.104481 0.000000
0.104679 0.103979 0.000000
0.117881 0.103399 0.000000
0.131865 0.102759 0.000000
0.146373 0.102073 0.000000
0.161233 0.101353 0.000000
0.176328 0.100610 0.000000
0.408616 0.099848 0.000000
0.439602 0.099072 0.000000
0.468700 0.098284 0.000000
0.501770 0.097484 0.000000
0.530952 0.096673 0.000000
0.562117 0.095848 0.000000
0.594277 0.095010 0.000000
0.625405 0.094154 0.000000
0.655680 0.093281 0.000000
0.686877 0.092387 0.000000
0.720037 0.091469 0.000000
0.751241 0.090523 0.000000
0.783796 0.089547 0.000000
0.803302 0.088537 0.000000
0.818887 0.087491 0.000000
0.834473 0.086405 0.000000
0.850058 0.085278 0.000000
0.865643 0.084105 0.000000
0.881227 0.082883 0.000000
0.896809 0.081609 0.000000
0.909804 0.080279 0.000000
0.909804 0.078891 0.000000
0.909804 0.077442 0.000000
0.070286 0.121183 0.000000
0.077839 0.120962 0.000000
0.085497 0.120722 0.000000
0.095255 0.120397 0.000000
0.106723 0.119989 0.000000
0.119436 0.119508 0.000000
0.133030 0.118967 0.000000
0.147235 0.118378 0.000000
0.161863 0.117751 0.000000
0.176782 0.117094 0.000000
0.408937 0.116415 0.000000
0.439824 0.115718 0.000000
0.468847 0.115007 0.000000
0.501860 0.114284 0.000000
0.531000 0.113549 0.000000
0.562133 0.112804 0.000000
0.594269 0.112046 0.000000
0.625379 0.111277 0.000000
0.655641 0.110493 0.000000
0.686834 0.109694 0.000000
0.719995 0.108876 0.000000
0.751201 0.108039 0.000000
0.783758 0.107180 0.000000
0.803267 0.106297 0.000000
0.818854 0.105388 0.000000
0.834443 0.104452 0.000000
0.850031 0.103487 0.000000
0.865618 0.102489 0.000000
0.881204 0.101457 0.000000
0.896789 0.100390 0.000000
0.909804 0.099285 0.000000
0.909804 0.098141 0.000000
0.909804 0.096957 0.000000
0.074841 0.136830 0.000000
0.081765 0.136654 0.000000
0.088879 0.136462 0.000000
0.098060 0.136198 0.000000
0.108978 0.135862 0.000000
0.121212 0.135460 0.000000
0.134405 0.135002 0.000000
0.148288 0.134494 0.000000
0.162660 0.133947 0.000000
0.177379 0.133367 0.000000
0.409379 0.132761 0.000000
0.440145 0.132135 0.000000
0.469076 0.131491 0.000000
0.502017 0.130834 0.000000
0.531101 0.130164 0.000000
0.562191 0.129483 0.000000
0.594297 0.128790 0.000000
0.625387 0.128086 0.000000
0.655640 0.127370 0.000000
0.686825 0.126641 0.000000
0.719982 0.125897 0.000000
0.751185 0.125139 0.000000
0.783741 0.124364 0.000000
0.803248 0.123571 0.000000
0.818836 0.122759 0.000000
0.834425 0.121927 0.000000
0.850014 0.121072 0.000000
0.865602 0.120194 0.000000
0.881189 0.119290 0.000000
0.896773 0.118361 0.000000
0.909804 0.117405 0.000000
0.909804 0.116422 0.000000
0.909804 0.115409 0.000000
0.079303 0.152434 0.000000
0.085695 0.152292 0.000000
0.092336 0.152134 0.000000
0.100996 0.151916 0.000000
0.111402 0.151636 0.000000
0.123171 0.151298 0.000000
0.135965 0.150906 0.000000
0.149515 0.150468 0.000000
0.163616 0.149989 0.000000
0.178117 0.149477 0.000000
0.409944 0.148936 0.000000
0.440572 0.148373 0.000000
0.469394 0.147790 0.000000
0.502253 0.147190 0.000000
0.531275 0.146576 0.000000
0.562320 0.145949 0.000000
0.594393 0.145311 0.000000
0.625458 0.144661 0.000000
0.655691 0.144000 0.000000
0.686862 0.143328 0.000000
0.720008 0.142643 0.000000
0.751202 0.141946 0.000000
0.783752 0.141236 0.000000
0.803255 0.140512 0.000000
0.818839 0.139772 0.000000
0.834426 0.139017 0.000000
0.850013 0.138244 0.000000
0.865600 0.137453 0.000000
0.881183 0.136643 0.000000
0.896762 0.135815 0.000000
0.909804 0.134966 0.000000
0.909804 0.134096 0.000000
0.909804 0.133204 0.000000
0.083672 0.324254 0.000000
0.089610 0.324136 0.000000
0.095835 0.324005 0.000000
0.104025 0.323823 0.000000
0.113956 0.323587 0.000000
0.125283 0.323299 0.000000
0.137687 0.322962 0.000000
0.150904 0.322581 0.000000
0.164729 0.322161 0.000000
0.179006 0.321707 0.000000
0.410650 0.321223 0.000000
0.441135 0.320715 0.000000
0.469843 0.320185 0.000000
0.502610 0.319637 0.000000
0.531560 0.319073 0.000000
0.562548 0.318495 0.000000
0.594574 0.317905 0.000000
0.625603 0.317303 0.000000
0.655807 0.316690 0.000000
0.686954 0.316066 0.000000
0.720081 0.315431 0.000000
0.751261 0.314785 0.000000
0.783799 0.314128 0.000000
0.803293 0.313458 0.000000
0.818870 0.312776 0.000000
0.834450 0.312081 0.000000
0.850031 0.311373 0.000000
0.865610 0.310650 0.000000
0.881185 0.309913 0.000000
0.896757 0.309161 0.000000
0.909804 0.308393 0.000000
0.909804 0.307608 0.000000
0.909804 0.306805 0.000000
0.088047 0.357377 0.000000
0.093591 0.357278 0.000000
0.099448 0.357168 0.000000
0.107213 0.357013 0.000000
0.116704 0.356812 0.000000
0.127610 0.356564 0.000000
0.139634 0.356272 0.000000
0.152520 0.355939 0.000000
0.166063 0.355568 0.000000
0.180102 0.355165 0.000000
0.411550 0.354731 0.000000
0.441872 0.354272 0.000000
0.470448 0.353790 0.000000
0.503107 0.353289 0.000000
0.531967 0.352771 0.000000
0.562883 0.352238 0.000000
0.594850 0.351691 0.000000
0.625831 0.351132 0.000000
0.655995 0.350562 0.000000
0.687111 0.349981 0.000000
0.720211 0.349390 0.000000
0.751370 0.348788 0.000000
0.783890 0.348175 0.000000
0.803369 0.347552 0.000000
0.818933 0.346918 0.000000
0.834498 0.346274 0.000000
0.850065 0.345619 0.000000
0.865632 0.344952 0.000000
0.881198 0.344273 0.000000
0.896761 0.343581 0.000000
0.909804 0.342877 0.000000
0.909804 0.342158 0.000000
0.909804 0.341425 0.000000
0.092546 0.390470 0.000000
0.097735 0.390385 0.000000
0.103252 0.390291 0.000000
0.110618 0.390159 0.000000
0.119686 0.389985 0.000000
0.130180 0.389770 0.000000
0.141823 0.389515 0.000000
0.154370 0.389223 0.000000
0.167618 0.388895 0.000000
0.181406 0.388535 0.000000
0.412641 0.388146 0.000000
0.442784 0.387731 0.000000
0.471210 0.387293 0.000000
0.503745 0.386834 0.000000
0.532502 0.386358 0.000000
0.563331 0.385866 0.000000
0.595227 0.385360 0.000000
0.626148 0.384840 0.000000
0.656264 0.384309 0.000000
0.687338 0.383767 0.000000
0.720405 0.383214 0.000000
0.751533 0.382651 0.000000
0.784026 0.382079 0.000000
0.803480 0.381497 0.000000
0.819020 0.380906 0.000000
0.834567 0.380306 0.000000
0.850117 0.379695 0.000000
0.865669 0.379075 0.000000
0.881223 0.378444 0.000000
0.896776 0.377802 0.000000
0.909804 0.377149 0.000000
0.909804 0.376484 0.000000
0.909804 0.375806 0.000000
0.097144 0.421576 0.000000
0.102010 0.421504 0.000000
0.107216 0.421422 0.000000
0.114208 0.421307 0.000000
0.122873 0.421156 0.000000
0.132967 0.420969 0.000000
0.144233 0.420745 0.000000
0.156438 0.420487 0.000000
0.169383 0.420195 0.000000
0.182908 0.419873 0.000000
0.413917 0.419523 0.000000
0.443868 0.419148 0.000000
0.472130 0.418749 0.000000
0.504526 0.418330 0.000000
0.533167 0.417892 0.000000
0.563897 0.417438 0.000000
0.595710 0.416968 0.000000
0.626561 0.416486 0.000000
0.656615 0.415991 0.000000
0.687636 0.415485 0.000000
0.720654 0.414968 0.000000
0.751741 0.414442 0.000000
0.784198 0.413906 0.000000
0.803620 0.413362 0.000000
0.819134 0.412808 0.000000
0.834658 0.412245 0.000000
0.850189 0.411673 0.000000
0.865724 0.411092 0.000000
0.881263 0.410502 0.000000
0.896804 0.409902 0.000000
0.909804 0.409293 0.000000
0.909804 0.408673 0.000000
0.909804 0.408042 0.000000
0.101820 0.454622 0.000000
0.106395 0.454559 0.000000
0.111314 0.454488 0.000000
0.117957 0.454388 0.000000
0.126239 0.454256 0.000000
0.135945 0.454091 0.000000
0.146840 0.453893 0.000000
0.158704 0.453663 0.000000
0.171343 0.453403 0.000000
0.184596 0.453114 0.000000
0.415370 0.452799 0.000000
0.445117 0.452458 0.000000
0.473202 0.452095 0.000000
0.505446 0.451711 0.000000
0.533955 0.451309 0.000000
0.564571 0.450890 0.000000
0.596285 0.450456 0.000000
0.627049 0.450008 0.000000
0.657029 0.449547 0.000000
0.687986 0.449075 0.000000
0.720950 0.448592 0.000000
0.751989 0.448099 0.000000
0.784405 0.447597 0.000000
0.803793 0.447085 0.000000
0.819277 0.446565 0.000000
0.834774 0.446036 0.000000
0.850282 0.445499 0.000000
0.865799 0.444953 0.000000
0.881321 0.444398 0.000000
0.896847 0.443835 0.000000
0.909804 0.443262 0.000000
0.909804 0.442681 0.000000
0.909804 0.442090 0.000000
0.106541 0.485690 0.000000
0.110851 0.485635 0.000000
0.115506 0.485572 0.000000
0.121822 0.485484 0.000000
0.129741 0.485367 0.000000
0.139073 0.485221 0.000000
0.149604 0.485046 0.000000
0.161127 0.484841 0.000000
0.173455 0.484609 0.000000
0.186429 0.484349 0.000000
0.416956 0.484064 0.000000
0.446485 0.483755 0.000000
0.474381 0.483424 0.000000
0.506460 0.483073 0.000000
0.534827 0.482703 0.000000
0.565320 0.482317 0.000000
0.596927 0.481915 0.000000
0.627599 0.481498 0.000000
0.657499 0.481069 0.000000
0.688387 0.480628 0.000000
0.721292 0.480177 0.000000
0.752279 0.479714 0.000000
0.784651 0.479243 0.000000
0.804000 0.478762 0.000000
0.819450 0.478272 0.000000
0.834918 0.477774 0.000000
0.850401 0.477267 0.000000
0.865894 0.476753 0.000000
0.881397 0.476230 0.000000
0.896906 0.475699 0.000000
0.909804 0.475159 0.000000
0.909804 0.474611 0.000000
0.909804 0.474055 0.000000
0.111172 0.518707 0.000000
0.115245 0.518658 0.000000
0.119660 0.518603 0.000000
0.125679 0.518525 0.000000
0.133261 0.518421 0.000000
0.142242 0.518292 0.000000
0.152426 0.518135 0.000000
0.163620 0.517952 0.000000
0.175644 0.517743 0.000000
0.188344 0.517509 0.000000
0.418625 0.517250 0.000000
0.447937 0.516969 0.000000
0.475642 0.516667 0.000000
0.507554 0.516346 0.000000
0.535774 0.516005 0.000000
0.566139 0.515649 0.000000
0.597635 0.515276 0.000000
0.628211 0.514889 0.000000
0.658026 0.514489 0.000000
0.688841 0.514077 0.000000
0.721681 0.513654 0.000000
0.752613 0.513221 0.000000
0.784936 0.512777 0.000000
0.804242 0.512324 0.000000
0.819655 0.511863 0.000000
0.835090 0.511393 0.000000
0.850545 0.510914 0.000000
0.866013 0.510428 0.000000
0.881494 0.509934 0.000000
0.896984 0.509432 0.000000
0.909804 0.508922 0.000000
0.909804 0.508404 0.000000
0.909804 0.507878 0.000000
0.115693 0.549754 0.000000
0.119554 0.549710 0.000000
0.123755 0.549661 0.000000
0.129503 0.549592 0.000000
0.136775 0.549499 0.000000
0.145429 0.549383 0.000000
0.155286 0.549243 0.000000
0.166166 0.549078 0.000000
0.177897 0.548889 0.000000
0.190330 0.548677 0.000000
0.420369 0.548443 0.000000
0.449465 0.548187 0.000000
0.476978 0.547911 0.000000
0.508721 0.547615 0.000000
0.536791 0.547302 0.000000
0.567026 0.546972 0.000000
0.598407 0.546626 0.000000
0.628881 0.546267 0.000000
0.658608 0.545894 0.000000
0.689345 0.545509 0.000000
0.722117 0.545112 0.000000
0.752990 0.544705 0.000000
0.785260 0.544288 0.000000
0.804520 0.543861 0.000000
0.819893 0.543425 0.000000
0.835293 0.542981 0.000000
0.850715 0.542529 0.000000
0.866157 0.542069 0.000000
0.881613 0.541601 0.000000
0.897082 0.541125 0.000000
0.909804 0.540642 0.000000
0.909804 0.540151 0.000000
0.909804 0.539653 0.000000
0.120110 0.577973 0.000000
0.123782 0.577934 0.000000
0.127789 0.577890 0.000000
0.133290 0.577828 0.000000
0.140277 0.577745 0.000000
0.148626 0.577640 0.000000
0.158175 0.577514 0.000000
0.168755 0.577365 0.000000
0.180205 0.577195 0.000000
0.192376 0.577002 0.000000
0.422178 0.576788 0.000000
0.451060 0.576554 0.000000
0.478383 0.576301 0.000000
0.509955 0.576029 0.000000
0.537875 0.575740 0.000000
0.567976 0.575435 0.000000
0.599238 0.575114 0.000000
0.629609 0.574780 0.000000
0.659244 0.574432 0.000000
0.689900 0.574071 0.000000
0.722600 0.573699 0.000000
0.753409 0.573317 0.000000
0.785624 0.572924 0.000000
0.804835 0.572522 0.000000
0.820164 0.572110 0.000000
0.835526 0.571690 0.000000
0.850915 0.571262 0.000000
0.866326 0.570826 0.000000
0.881756 0.570382 0.000000
0.897201 0.569931 0.000000
0.909804 0.569472 0.000000
0.909804 0.569007 0.000000
0.909804 0.568533 0.000000
0.124429 0.607900 0.000000
0.127931 0.607865 0.000000
0.131763 0.607826 0.000000
0.137037 0.607769 0.000000
0.143761 0.607695 0.000000
0.151825 0.607600 0.000000
0.161084 0.607486 0.000000
0.171379 0.607351 0.000000
0.182557 0.607196 0.000000
0.194476 0.607020 0.000000
0.424046 0.606825 0.000000
0.452717 0.606611 0.000000
0.479849 0.606378 0.000000
0.511251 0.606128 0.000000
0.539019 0.605861 0.000000
0.568985 0.605578 0.000000
0.600127 0.605280 0.000000
0.630391 0.604968 0.000000
0.659931 0.604643 0.000000
0.690503 0.604306 0.000000
0.723129 0.603957 0.000000
0.753872 0.603597 0.000000
0.786028 0.603227 0.000000
0.805187 0.602847 0.000000
0.820469 0.602459 0.000000
0.835790 0.602061 0.000000
0.851142 0.601656 0.000000
0.866521 0.601242 0.000000
0.881922 0.600821 0.000000
0.897341 0.600392 0.000000
0.909804 0.599956 0.000000
0.909804 0.599513 0.000000
0.909804 0.599063 0.000000
0.128656 0.640884 0.000000
0.132004 0.640852 0.000000
0.135675 0.640816 0.000000
0.140743 0.640766 0.000000
0.147223 0.640698 0.000000
0.155021 0.640612 0.000000
0.164005 0.640508 0.000000
0.174029 0.640386 0.000000
0.184947 0.640244 0.000000
0.196620 0.640084 0.000000
0.425964 0.639905 0.000000
0.454428 0.639708 0.000000
0.481372 0.639494 0.000000
0.512605 0.639262 0.000000
0.540220 0.639015 0.000000
0.570050 0.638753 0.000000
0.601070 0.638476 0.000000
0.631225 0.638185 0.000000
0.660668 0.637881 0.000000
0.691153 0.637565 0.000000
0.723702 0.637237 0.000000
0.754376 0.636899 0.000000
0.786471 0.636550 0.000000
0.805575 0.636192 0.000000
0.820809 0.635825 0.000000
0.836086 0.635448 0.000000
0.851399 0.635064 0.000000
0.866743 0.634671 0.000000
0.882113 0.634271 0.000000
0.897505 0.633863 0.000000
0.909804 0.633449 0.000000
0.909804 0.633027 0.000000
0.909804 0.632598 0.000000
0.132796 0.669265 0.000000
0.136003 0.669237 0.000000
0.139528 0.669204 0.000000
0.144405 0.669158 0.000000
0.150659 0.669096 0.000000
0.158208 0.669018 0.000000
0.166934 0.668923 0.000000
0.176699 0.668811 0.000000
0.187366 0.668682 0.000000
0.198803 0.668535 0.000000
0.427926 0.668370 0.000000
0.456187 0.668189 0.000000
0.482946 0.667991 0.000000
0.514010 0.667778 0.000000
0.541474 0.667548 0.000000
0.571166 0.667304 0.000000
0.602064 0.667046 0.000000
0.632108 0.666775 0.000000
0.661452 0.666491 0.000000
0.691849 0.666194 0.000000
0.724318 0.665887 0.000000
0.754921 0.665568 0.000000
0.786952 0.665239 0.000000
0.805999 0.664901 0.000000
0.821182 0.664553 0.000000
0.836413 0.664197 0.000000
0.851685 0.663832 0.000000
0.866992 0.663459 0.000000
0.882329 0.663079 0.000000
0.897691 0.662691 0.000000
0.909804 0.662296 0.000000
0.909804 0.661894 0.000000
0.909804 0.661485 0.000000
0.136852 0.698989 0.000000
0.139932 0.698963 0.000000
0.143322 0.698933 0.000000
0.148022 0.698891 0.000000
0.154066 0.698834 0.000000
0.161382 0.698763 0.000000
0.169864 0.698676 0.000000
0.179383 0.698574 0.000000
0.189811 0.698455 0.000000
0.201019 0.698319 0.000000
0.429927 0.698168 0.000000
0.457989 0.698001 0.000000
0.484565 0.697818 0.000000
0.515463 0.697620 0.000000
0.542775 0.697407 0.000000
0.572331 0.697180 0.000000
0.603105 0.696939 0.000000
0.633037 0.696685 0.000000
0.662281 0.696419 0.000000
0.692587 0.696141 0.000000
0.724975 0.695852 0.000000
0.755505 0.695552 0.000000
0.787470 0.695242 0.000000
0.806458 0.694922 0.000000
0.821588 0.694593 0.000000
0.836771 0.694255 0.000000
0.852000 0.693909 0.000000
0.867269 0.693555 0.000000
0.882571 0.693193 0.000000
0.897901 0.692824 0.000000
0.909804 0.692447 0.000000
0.909804 0.692064 0.000000
0.909804 0.691674 0.000000
0.140829 0.717677 0.000000
0.143791 0.717653 0.000000
0.147058 0.717626 0.000000
0.151595 0.717587 0.000000
0.157443 0.717536 0.000000
0.164541 0.717470 0.000000
0.172791 0.717391 0.000000
0.182077 0.717296 0.000000
0.192274 0.717187 0.000000
0.203261 0.717062 0.000000
0.431960 0.716922 0.000000
0.459828 0.716768 0.000000
0.486225 0.716598 0.000000
0.516958 0.716414 0.000000
0.544120 0.716216 0.000000
0.573539 0.716004 0.000000
0.604189 0.715780 0.000000
0.634010 0.715542 0.000000
0.663152 0.715293 0.000000
0.693367 0.715032 0.000000
0.725672 0.714759 0.000000
0.756127 0.714477 0.000000
0.788025 0.714184 0.000000
0.806952 0.713881 0.000000
0.822026 0.713570 0.000000
0.837160 0.713249 0.000000
0.852344 0.712921 0.000000
0.867572 0.712584 0.000000
0.882838 0.712240 0.000000
0.898135 0.711888 0.000000
0.909804 0.711529 0.000000
0.909804 0.711163 0.000000
0.909804 0.710790 0.000000
0.144731 0.733052 0.000000
0.147585 0.733029 0.000000
0.150737 0.733005 0.000000
0.155123 0.732969 0.000000
0.160788 0.732922 0.000000
0.167680 0.732861 0.000000
0.175712 0.732788 0.000000
0.184775 0.732701 0.000000
0.194751 0.732600 0.000000
0.205525 0.732485 0.000000
0.434022 0.732355 0.000000
0.461700 0.732212 0.000000
0.487921 0.732054 0.000000
0.518492 0.731883 0.000000
0.545505 0.731699 0.000000
0.574789 0.731501 0.000000
0.605315 0.731291 0.000000
0.635023 0.731068 0.000000
0.664063 0.730834 0.000000
0.694185 0.730589 0.000000
0.726406 0.730332 0.000000
0.756785 0.730066 0.000000
0.788614 0.729789 0.000000
0.807479 0.729503 0.000000
0.822496 0.729208 0.000000
0.837579 0.728904 0.000000
0.852717 0.728592 0.000000
0.867903 0.728271 0.000000
0.883130 0.727943 0.000000
0.898392 0.727608 0.000000
0.909804 0.727266 0.000000
0.909804 0.726916 0.000000
0.909804 0.726560 0.000000
0.148560 0.748421 0.000000
0.151314 0.748401 0.000000
0.154360 0.748378 0.000000
0.158606 0.748345 0.000000
0.164100 0.748301 0.000000
0.170798 0.748246 0.000000
0.178623 0.748178 0.000000
0.187474 0.748097 0.000000
0.197238 0.748004 0.000000
0.207806 0.747897 0.000000
0.436107 0.747777 0.000000
0.463600 0.747643 0.000000
0.489649 0.747497 0.000000
0.520060 0.747338 0.000000
0.546927 0.747165 0.000000
0.576075 0.746981 0.000000
0.606478 0.746784 0.000000
0.636074 0.746575 0.000000
0.665012 0.746355 0.000000
0.695040 0.746124 0.000000
0.727176 0.745883 0.000000
0.757478 0.745631 0.000000
0.789237 0.745369 0.000000
0.808037 0.745098 0.000000
0.822997 0.744819 0.000000
0.838027 0.744530 0.000000
0.853117 0.744233 0.000000
0.868259 0.743929 0.000000
0.883447 0.743616 0.000000
0.898673 0.743297 0.000000
0.909804 0.742970 0.000000
0.909804 0.742636 0.000000
0.909804 0.742296 0.000000
0.152319 0.763786 0.000000
0.154981 0.763767 0.000000
0.157929 0.763746 0.000000
0.162043 0.763716 0.000000
0.167377 0.763675 0.000000
0.173894 0.763624 0.000000
0.181523 0.763561 0.000000
0.190170 0.763486 0.000000
0.199732 0.763399 0.000000
0.210102 0.763300 0.000000
0.438212 0.763189 0.000000
0.465525 0.763064 0.000000
0.491405 0.762928 0.000000
0.521659 0.762779 0.000000
0.548381 0.762618 0.000000
0.577395 0.762445 0.000000
0.607676 0.762260 0.000000
0.637159 0.762064 0.000000
0.665995 0.761858 0.000000
0.695929 0.761640 0.000000
0.727980 0.761412 0.000000
0.758204 0.761174 0.000000
0.789891 0.760927 0.000000
0.808627 0.760670 0.000000
0.823528 0.760405 0.000000
0.838503 0.760131 0.000000
