public/samples/sample_warm_look.cube
# Generated by LUT Builder (Nunik Co.)
TITLE "warm_look_sample"
LUT_3D_SIZE 9
DOMAIN_MIN 0.0 0.0 0.0
DOMAIN_MAX 1.0 1.0 1.0
0.065951 0.015381 0.000000
0.096779 0.012622 0.000000
0.160318 0.000000 0.000000
0.468751 0.000000 0.000000
0.594536 0.000000 0.000000
0.720322 0.000000 0.000000
0.819099 0.000000 0.000000
0.881358 0.000000 0.000000
0.909804 0.000000 0.000000
0.061797 0.072451 0.000000
0.101440 0.071288 0.000000
0.160472 0.067643 0.000000
0.468605 0.063719 0.000000
0.594356 0.059436 0.000000
0.720156 0.054469 0.000000
0.818971 0.048395 0.000000
0.881281 0.040539 0.000000
0.909804 0.029685 0.000000
0.074841 0.136830 0.000000
0.108978 0.135862 0.000000
0.162660 0.133947 0.000000
0.469076 0.131491 0.000000
0.594297 0.128790 0.000000
0.719982 0.125897 0.000000
0.818836 0.122759 0.000000
0.881189 0.119290 0.000000
0.909804 0.115409 0.000000
0.092546 0.390470 0.000000
0.119686 0.389985 0.000000
0.167618 0.388895 0.000000
0.471210 0.387293 0.000000
0.595227 0.385360 0.000000
0.720405 0.383214 0.000000
0.819020 0.380906 0.000000
0.881223 0.378444 0.000000
0.909804 0.375806 0.000000
0.111172 0.518707 0.000000
0.133261 0.518421 0.000000
0.175644 0.517743 0.000000
0.475642 0.516667 0.000000
0.597635 0.515276 0.000000
0.721681 0.513654 0.000000
0.819655 0.511863 0.000000
0.881494 0.509934 0.000000
0.909804 0.507878 0.000000
0.128656 0.640884 0.000000
0.147223 0.640698 0.000000
0.184947 0.640244 0.000000
0.481372 0.639494 0.000000
0.601070 0.638476 0.000000
0.723702 0.637237 0.000000
0.820809 0.635825 0.000000
0.882113 0.634271 0.000000
0.909804 0.632598 0.000000
0.144731 0.733052 0.000000
0.160788 0.732922 0.000000
0.194751 0.732600 0.000000
0.487921 0.732054 0.000000
0.605315 0.731291 0.000000
0.726406 0.730332 0.000000
0.822496 0.729208 0.000000
0.883130 0.727943 0.000000
0.909804 0.726560 0.000000
0.159640 0.794504 0.000000
0.173827 0.794408 0.000000
0.204726 0.794169 0.000000
0.494987 0.793758 0.000000
0.610165 0.793171 0.000000
0.729681 0.792417 0.000000
0.824673 0.791513 0.000000
0.884543 0.790476 0.000000
0.909804 0.789323 0.000000
0.173556 0.849020 0.000000
0.186298 0.849020 0.000000
0.214671 0.849020 0.000000
0.502353 0.849020 0.000000
0.615445 0.849020 0.000000
0.733407 0.849020 0.000000
0.827268 0.849020 0.000000
0.886319 0.849020 0.000000
0.909804 0.849020 0.000000
0.067103 0.014953 0.022621
0.102527 0.006247 0.023115
0.162884 0.000000 0.023069
0.470203 0.000000 0.020394
0.595567 0.000000 0.015586
0.721200 0.000000 0.008183
0.819940 0.000000 0.000000
0.882137 0.000000 0.000000
0.909804 0.000000 0.000000
0.068202 0.071994 0.019776
0.106990 0.069996 0.019398
0.163129 0.066708 0.018050
0.470190 0.062929 0.015092
0.595513 0.058655 0.009999
0.721148 0.053585 0.002267
0.819882 0.047321 0.000000
0.882079 0.039239 0.000000
0.909804 0.028079 0.000000
0.082670 0.136150 0.006065
0.114064 0.135247 0.005470
0.165672 0.133421 0.003758
0.471071 0.131025 0.000322
0.595804 0.128342 0.000000
0.721201 0.125446 0.000000
0.819834 0.122303 0.000000
0.881988 0.118842 0.000000
0.909804 0.114976 0.000000
0.099774 0.390053 0.000000
0.125116 0.389583 0.000000
0.171209 0.388521 0.000000
0.473637 0.386949 0.000000
0.596956 0.385042 0.000000
0.721681 0.382919 0.000000
0.819987 0.380632 0.000000
0.881978 0.378186 0.000000
0.909804 0.375562 0.000000
0.116633 0.518447 0.000000
0.137684 0.518167 0.000000
0.178772 0.517500 0.000000
0.477817 0.516440 0.000000
0.599195 0.515065 0.000000
0.722842 0.513458 0.000000
0.820547 0.511679 0.000000
0.882199 0.509761 0.000000
0.909804 0.507715 0.000000
0.132692 0.640713 0.000000
0.150660 0.640529 0.000000
0.187530 0.640080 0.000000
0.483248 0.639337 0.000000
0.602455 0.638328 0.000000
0.724752 0.637098 0.000000
0.821628 0.635693 0.000000
0.882767 0.634146 0.000000
0.909804 0.632480 0.000000
0.147852 0.732932 0.000000
0.163536 0.732803 0.000000
0.196912 0.732483 0.000000
0.489548 0.731941 0.000000
0.606545 0.731182 0.000000
0.727357 0.730229 0.000000
0.823247 0.729109 0.000000
0.883735 0.727849 0.000000
0.909804 0.726470 0.000000
0.162139 0.794415 0.000000
0.176078 0.794320 0.000000
0.206559 0.794083 0.000000
0.496409 0.793674 0.000000
0.611263 0.793089 0.000000
0.730543 0.792338 0.000000
0.825362 0.791436 0.000000
0.885103 0.790402 0.000000
0.909804 0.789252 0.000000
0.175612 0.849020 0.000000
0.188182 0.849020 0.000000
0.216246 0.849020 0.000000
0.503606 0.849020 0.000000
0.616431 0.849020 0.000000
0.734191 0.849020 0.000000
0.827901 0.849020 0.000000
0.886839 0.849020 0.000000
0.909804 0.849020 0.000000
0.092073 0.000522 0.086683
0.124253 0.000000 0.086935
0.173480 0.000000 0.086696
0.476739 0.000000 0.085983
0.600014 0.000000 0.084808
0.724420 0.000000 0.083146
0.822365 0.000000 0.080973
0.884026 0.000000 0.078265
0.909804 0.000000 0.074987
0.097008 0.067533 0.085616
0.125173 0.066101 0.085520
0.173523 0.063426 0.085198
0.476666 0.059979 0.084506
0.599920 0.055837 0.083364
0.724329 0.050776 0.081733
0.822282 0.044392 0.079585
0.883951 0.035994 0.076891
0.909804 0.024052 0.073617
0.104192 0.134238 0.081940
0.129433 0.133471 0.081825
0.175265 0.131856 0.081495
0.477246 0.129647 0.080827
0.600047 0.127098 0.079731
0.724283 0.124291 0.078149
0.822171 0.121209 0.076040
0.883818 0.117788 0.073366
0.909804 0.113946 0.070083
0.115466 0.389034 0.075487
0.137380 0.388601 0.075359
0.179537 0.387610 0.075013
0.479264 0.386120 0.074348
0.600924 0.384287 0.073272
0.724605 0.382223 0.071715
0.822224 0.379981 0.069616
0.883740 0.377570 0.066920
0.909804 0.374973 0.063566
0.128422 0.517824 0.065572
0.147462 0.517557 0.065430
0.185870 0.516917 0.065055
0.482836 0.515893 0.064354
0.602832 0.514556 0.063238
0.725569 0.512984 0.061624
0.822657 0.511235 0.059431
0.883875 0.509342 0.056576
0.909804 0.507317 0.052961
0.141840 0.640297 0.050613
0.158557 0.640119 0.050443
0.193565 0.639681 0.050001
0.487684 0.638955 0.049182
0.605753 0.637966 0.047889
0.727269 0.636756 0.046014
0.823599 0.635370 0.043435
0.884347 0.633840 0.040002
0.909804 0.632188 0.035499
0.155155 0.732636 0.024949
0.170018 0.732510 0.024675
0.202067 0.732196 0.023962
0.493463 0.731663 0.022633
0.609525 0.730914 0.020491
0.729667 0.729973 0.017326
0.825078 0.728865 0.013156
0.885216 0.727616 0.007917
0.909804 0.726248 0.001568
0.168112 0.794196 0.000000
0.181488 0.794102 0.000000
0.210997 0.793867 0.000000
0.499873 0.793463 0.000000
0.613954 0.792884 0.000000
0.732660 0.792140 0.000000
0.827058 0.791246 0.000000
0.886487 0.790219 0.000000
0.909804 0.789077 0.000000
0.180598 0.849020 0.000000
0.192765 0.849020 0.000000
0.220101 0.849020 0.000000
0.506686 0.849020 0.000000
0.618866 0.849020 0.000000
0.736132 0.849020 0.000000
0.829472 0.849020 0.000000
0.888130 0.849020 0.000000
0.909804 0.849020 0.000000
0.127328 0.000000 0.281045
0.148086 0.000000 0.281109
0.188493 0.000000 0.281165
0.486540 0.000000 0.281102
0.606801 0.000000 0.280852
0.729381 0.000000 0.280387
0.826147 0.000000 0.279699
0.887005 0.000000 0.278784
0.909804 0.000000 0.277641
0.127017 0.061126 0.280641
0.147790 0.060161 0.280658
0.188249 0.058089 0.280653
0.486345 0.055050 0.280549
0.606644 0.051079 0.280281
0.729252 0.045972 0.279813
0.826040 0.039294 0.279128
0.886913 0.030175 0.278219
0.909804 0.016474 0.277086
0.129761 0.131337 0.279343
0.149623 0.130725 0.279329
0.189045 0.129375 0.279274
0.486547 0.127424 0.279126
0.606593 0.125070 0.278835
0.729107 0.122399 0.278363
0.825867 0.119405 0.277686
0.886738 0.116040 0.276794
0.909804 0.112228 0.275681
0.136264 0.387404 0.276883
0.154566 0.387022 0.276854
0.191914 0.386133 0.276770
0.487933 0.384766 0.276594
0.607156 0.383045 0.276287
0.729255 0.381073 0.275815
0.825812 0.378902 0.275153
0.886588 0.376545 0.274285
0.909804 0.373990 0.273202
0.145269 0.516797 0.273164
0.161891 0.516549 0.273127
0.196765 0.515951 0.273028
0.490748 0.514984 0.272836
0.608658 0.513708 0.272521
0.729981 0.512192 0.272053
0.826095 0.510491 0.271407
0.886622 0.508638 0.270566
0.909804 0.506646 0.269516
0.155622 0.639598 0.268113
0.170688 0.639427 0.268072
0.203087 0.639009 0.267964
0.494826 0.638311 0.267763
0.611133 0.637354 0.267444
0.731407 0.636177 0.266980
0.826859 0.634822 0.266349
0.886972 0.633321 0.265531
0.909804 0.631693 0.264513
0.166585 0.732133 0.261629
0.180291 0.732010 0.261586
0.210389 0.731705 0.261473
0.499881 0.731186 0.261266
0.614459 0.730456 0.260943
0.733519 0.729534 0.260481
0.828146 0.728446 0.259860
0.887706 0.727216 0.259060
0.909804 0.725865 0.258065
0.177725 0.793818 0.253551
0.190266 0.793726 0.253506
0.218294 0.793496 0.253389
0.505638 0.793099 0.253176
0.618468 0.792531 0.252848
0.736232 0.791799 0.252383
0.829932 0.790918 0.251763
0.888839 0.789904 0.250969
0.909804 0.788773 0.249983
0.188792 0.849020 0.243599
0.200341 0.849020 0.243552
0.226533 0.849020 0.243429
0.511874 0.849020 0.243209
0.622995 0.849020 0.242870
0.739440 0.849020 0.242395
0.832158 0.849020 0.241764
0.890345 0.849020 0.240958
0.909804 0.849020 0.239960
0.156291 0.000000 0.401521
0.172284 0.000000 0.401602
0.206079 0.000000 0.401749
0.498877 0.000000 0.401893
0.615663 0.000000 0.401968
0.735986 0.000000 0.401938
0.831244 0.000000 0.401786
0.891054 0.000000 0.401505
0.909804 0.000000 0.401091
0.155599 0.052847 0.401438
0.171706 0.052149 0.401488
0.205662 0.050492 0.401583
0.498585 0.047767 0.401678
0.615450 0.043876 0.401720
0.735823 0.038543 0.401669
0.831114 0.031173 0.401506
0.890946 0.020351 0.401219
0.909804 0.005477 0.400804
0.156195 0.127609 0.400979
0.172075 0.127132 0.401000
0.205722 0.126035 0.401039
0.498443 0.124359 0.401072
0.615225 0.122232 0.401061
0.735580 0.119725 0.400975
0.830880 0.116842 0.400790
0.890730 0.113544 0.400493
0.909804 0.109765 0.400075
0.159490 0.385213 0.399905
0.174701 0.384886 0.399909
0.207322 0.384111 0.399911
0.499196 0.382888 0.399897
0.615462 0.381307 0.399842
0.735544 0.379454 0.399721
0.830712 0.377376 0.399514
0.890506 0.375091 0.399206
0.909804 0.372591 0.398786
0.165252 0.515375 0.398129
0.179557 0.515150 0.398123
0.210693 0.514603 0.398104
0.501203 0.513709 0.398061
0.616516 0.512512 0.397975
0.736009 0.511070 0.397829
0.830833 0.509434 0.397605
0.890431 0.507635 0.397289
0.909804 0.505687 0.396870
0.172739 0.638611 0.395624
0.186080 0.638451 0.395612
0.215553 0.638057 0.395581
0.504420 0.637396 0.395520
0.618482 0.636483 0.395415
0.737122 0.635351 0.395253
0.831394 0.634039 0.395018
0.890644 0.632575 0.394699
0.909804 0.630981 0.394285
0.181296 0.731412 0.392380
0.193707 0.731295 0.392366
0.221511 0.731003 0.392327
0.508634 0.730504 0.392255
0.621283 0.729798 0.392139
0.738896 0.728904 0.391967
0.832454 0.727843 0.391728
0.891221 0.726639 0.391409
0.909804 0.725312 0.391003
0.190449 0.793271 0.388392
0.202006 0.793182 0.388375
0.228222 0.792959 0.388333
0.513607 0.792574 0.388255
0.624781 0.792020 0.388133
0.741267 0.791305 0.387956
0.834005 0.790441 0.387715
0.892185 0.789445 0.387401
0.909804 0.788331 0.387004
0.199880 0.849020 0.383648
0.210670 0.849020 0.383631
0.235417 0.849020 0.383586
0.519130 0.849020 0.383505
0.628826 0.849020 0.383380
0.744143 0.849020 0.383202
0.835996 0.849020 0.382962
0.893519 0.849020 0.382653
0.909804 0.849020 0.382266
0.183476 0.000000 0.520350
0.196414 0.000000 0.520427
0.225140 0.000000 0.520591
0.513129 0.000000 0.520804
0.626307 0.000000 0.521013
0.744103 0.000000 0.521178
0.837594 0.000000 0.521278
0.896143 0.000000 0.521299
0.909804 0.000000 0.521237
0.182724 0.041913 0.520385
0.195758 0.041334 0.520443
0.224640 0.039861 0.520570
0.512771 0.037215 0.520742
0.626049 0.033099 0.520916
0.743909 0.026988 0.521056
0.837443 0.017711 0.521138
0.896021 0.005559 0.521148
0.909804 0.000000 0.521078
0.182310 0.123151 0.520291
0.195333 0.122777 0.520325
0.224208 0.121887 0.520404
0.512355 0.120459 0.520515
0.625669 0.118556 0.520631
0.743573 0.116223 0.520725
0.837149 0.113460 0.520772
0.895764 0.110235 0.520758
0.909804 0.106485 0.520673
0.183600 0.382523 0.519864
0.196364 0.382247 0.519882
0.224801 0.381583 0.519924
0.512543 0.380507 0.519984
0.625592 0.379077 0.520045
0.743355 0.377357 0.520089
0.836868 0.375389 0.520096
0.895464 0.373190 0.520052
0.909804 0.370755 0.519946
0.186944 0.513582 0.519002
0.199248 0.513381 0.519010
0.226864 0.512890 0.519028
0.513773 0.512076 0.519053
0.626194 0.510968 0.519074
0.743548 0.509614 0.519077
0.836817 0.508056 0.519049
0.895277 0.506324 0.518976
0.909804 0.504431 0.518850
0.192028 0.637342 0.517669
0.203765 0.637195 0.517671
0.230331 0.636829 0.517674
0.516116 0.636211 0.517676
0.627622 0.635350 0.517669
0.744324 0.634274 0.517642
0.837159 0.633014 0.517587
0.895341 0.631598 0.517492
0.909804 0.630045 0.517348
0.198388 0.730475 0.515856
0.209520 0.730364 0.515854
0.234940 0.730086 0.515849
0.519445 0.729611 0.515835
0.629853 0.728937 0.515809
0.745725 0.728076 0.515763
0.837970 0.727050 0.515688
0.895744 0.725879 0.515577
0.909804 0.724582 0.515421
0.205608 0.792554 0.513567
0.216143 0.792468 0.513562
0.240403 0.792254 0.513551
0.523568 0.791882 0.513528
0.632783 0.791347 0.513489
0.747712 0.790653 0.513430
0.839254 0.789811 0.513342
0.896518 0.788838 0.513220
0.909804 0.787746 0.513057
0.213367 0.849020 0.510806
0.223335 0.849020 0.510800
0.246472 0.849020 0.510785
0.528298 0.849020 0.510756
0.636282 0.849020 0.510710
0.750208 0.849020 0.510642
0.840974 0.849020 0.510546
0.897655 0.849020 0.510418
0.909804 0.849020 0.510251
0.209341 0.000000 0.617335
0.220167 0.000000 0.617405
0.244988 0.000000 0.617563
0.528761 0.000000 0.617792
0.638423 0.000000 0.618054
0.753566 0.000000 0.618312
0.845113 0.000000 0.618541
0.902231 0.000000 0.618726
0.909804 0.000000 0.618857
0.208617 0.025995 0.617416
0.219513 0.025380 0.617474
0.244461 0.023742 0.617606
0.528366 0.020559 0.617804
0.638131 0.015346 0.618036
0.753346 0.008156 0.618269
0.844942 0.000000 0.618479
0.902094 0.000000 0.618650
0.909804 0.000000 0.618771
0.207740 0.117973 0.617493
0.218686 0.117672 0.617533
0.243733 0.116938 0.617628
0.527754 0.115713 0.617774
0.637626 0.114007 0.617951
0.752929 0.111836 0.618137
0.844593 0.109188 0.618308
0.901799 0.106027 0.618449
0.909804 0.102292 0.618548
0.207815 0.379384 0.617406
0.218685 0.379152 0.617431
0.243594 0.378585 0.617493
0.527483 0.377646 0.617590
0.637270 0.376363 0.617713
0.752538 0.374780 0.617844
0.844202 0.372929 0.617969
0.901425 0.370824 0.618070
0.909804 0.368463 0.618139
0.209442 0.511447 0.617045
0.220094 0.511270 0.617061
0.244590 0.510833 0.617099
0.528024 0.510100 0.617160
0.637443 0.509086 0.617239
0.752463 0.507826 0.617324
0.843978 0.506355 0.617403
0.901121 0.504697 0.617466
0.909804 0.502868 0.617503
0.212625 0.635806 0.616362
0.222957 0.635671 0.616372
0.246828 0.635335 0.616394
0.529544 0.634764 0.616431
0.638341 0.633960 0.616477
0.752896 0.632945 0.616526
0.844093 0.631744 0.616570
0.901030 0.630384 0.616599
0.909804 0.628880 0.616606
0.217105 0.729325 0.615341
0.227060 0.729220 0.615346
0.250179 0.728960 0.615359
0.532001 0.728512 0.615378
0.639990 0.727872 0.615401
0.753908 0.727050 0.615424
0.844637 0.726064 0.615440
0.901247 0.724932 0.615443
0.909804 0.723671 0.615426
0.222570 0.791665 0.613980
0.232123 0.791583 0.613982
0.254429 0.791378 0.613987
0.535261 0.791023 0.613994
0.642324 0.790509 0.614002
0.755484 0.789840 0.614006
0.845633 0.789025 0.614002
0.901815 0.788079 0.613985
0.909804 0.787013 0.613950
0.228739 0.849020 0.612281
0.237887 0.849020 0.612281
0.259365 0.849020 0.612282
0.539166 0.849020 0.612281
0.645240 0.849020 0.612277
0.757566 0.849020 0.612268
0.847057 0.849020 0.612250
0.902735 0.849020 0.612218
0.909804 0.849020 0.612170
0.234167 0.000000 0.675997
0.243454 0.000000 0.676059
0.265216 0.000000 0.676205
0.545362 0.000000 0.676430
0.651720 0.000000 0.676708
0.764199 0.000000 0.677007
0.853699 0.000000 0.677303
0.909261 0.000000 0.677580
0.909804 0.000000 0.677825
0.233494 0.001191 0.676095
0.242830 0.000613 0.676149
0.264691 0.000000 0.676278
0.544950 0.000000 0.676480
0.651406 0.000000 0.676732
0.763960 0.000000 0.677010
0.853512 0.000000 0.677288
0.909111 0.000000 0.677550
0.909804 0.000000 0.677784
0.232419 0.112013 0.676253
0.241816 0.111762 0.676295
0.263802 0.111138 0.676394
0.544211 0.110064 0.676554
0.650807 0.108517 0.676760
0.763474 0.106479 0.676994
0.853114 0.103924 0.677234
0.908780 0.100807 0.677465
0.909804 0.097059 0.677674
0.231772 0.375823 0.676353
0.241171 0.375626 0.676383
0.263163 0.375140 0.676454
0.543591 0.374319 0.676571
0.650220 0.373171 0.676726
0.762931 0.371719 0.676907
0.852619 0.369984 0.677098
0.908333 0.367976 0.677287
0.909804 0.365691 0.677461
0.232211 0.508996 0.676289
0.241521 0.508840 0.676309
0.263335 0.508453 0.676359
0.543557 0.507796 0.676441
0.650012 0.506874 0.676553
0.762605 0.505709 0.676686
0.852228 0.504328 0.676830
0.907914 0.502751 0.676975
0.909804 0.500991 0.677111
0.233940 0.634018 0.676003
0.243080 0.633895 0.676017
0.264547 0.633588 0.676051
0.544345 0.633063 0.676108
0.650412 0.632318 0.676186
0.762704 0.631367 0.676281
0.852116 0.630231 0.676385
0.907666 0.628930 0.676491
0.909804 0.627481 0.676591
0.236874 0.727969 0.675470
0.245786 0.727872 0.675480
0.266783 0.727629 0.675503
0.545991 0.727209 0.675541
0.651495 0.726606 0.675595
0.763325 0.725827 0.675661
0.852389 0.724885 0.675733
0.907691 0.723797 0.675807
0.909804 0.722576 0.675876
0.240814 0.790608 0.674682
0.249464 0.790531 0.674688
0.269911 0.790336 0.674703
0.548417 0.789998 0.674729
0.653234 0.789507 0.674765
0.764480 0.788866 0.674809
0.853085 0.788082 0.674857
0.908042 0.787166 0.674905
0.909804 0.786130 0.674949
0.245538 0.849020 0.673638
0.253908 0.849020 0.673642
0.273765 0.849020 0.673652
0.551504 0.849020 0.673668
0.655554 0.849020 0.673691
0.766132 0.849020 0.673718
0.854194 0.849020 0.673748
0.908731 0.849020 0.673777
0.909804 0.849020 0.673801
0.258148 0.000000 0.734779
0.266266 0.000000 0.734835
0.285588 0.000000 0.734968
0.562627 0.000000 0.735180
0.665949 0.000000 0.735455
0.775832 0.000000 0.735769
0.863243 0.000000 0.736098
0.909804 0.000000 0.736426
0.909804 0.000000 0.736739
0.257529 0.000000 0.734882
0.265682 0.000000 0.734932
0.285080 0.000000 0.735053
0.562214 0.000000 0.735248
0.665624 0.000000 0.735504
0.775578 0.000000 0.735798
0.863043 0.000000 0.736111
0.909804 0.000000 0.736425
0.909804 0.000000 0.736727
0.256386 0.105140 0.735077
0.264597 0.104922 0.735118
0.284114 0.104371 0.735217
0.561400 0.103401 0.735379
0.664959 0.101965 0.735596
0.775039 0.100020 0.735852
0.862603 0.097521 0.736130
0.909804 0.094408 0.736413
0.909804 0.090598 0.736690
0.255319 0.371846 0.735282
0.263562 0.371677 0.735313
0.283149 0.371255 0.735388
0.560530 0.370533 0.735514
0.664190 0.369501 0.735685
0.774366 0.368167 0.735893
0.862016 0.366541 0.736124
0.909804 0.364627 0.736366
0.909804 0.362418 0.736606
0.254950 0.506248 0.735400
0.263170 0.506110 0.735422
0.282711 0.505767 0.735478
0.560039 0.505179 0.735572
0.663659 0.504342 0.735703
0.773817 0.503268 0.735865
0.861469 0.501976 0.736049
0.909804 0.500481 0.736245
0.909804 0.498793 0.736445
0.255590 0.631990 0.735368
0.263728 0.631879 0.735385
0.283097 0.631600 0.735425
0.560205 0.631120 0.735495
0.663614 0.630433 0.735593
0.773604 0.629546 0.735717
0.861139 0.628475 0.735860
0.909804 0.627238 0.736015
0.909804 0.625846 0.736175
0.257284 0.726417 0.735156
0.265292 0.726327 0.735168
0.284382 0.726102 0.735198
0.561125 0.725710 0.735249
0.664170 0.725145 0.735323
0.773848 0.724409 0.735416
0.861143 0.723514 0.735525
0.909804 0.722472 0.735645
0.909804 0.721296 0.735771
0.259934 0.789387 0.734748
0.267776 0.789314 0.734757
0.286510 0.789131 0.734779
0.562778 0.788811 0.734817
0.665337 0.788345 0.734871
0.774587 0.787733 0.734941
0.861536 0.786981 0.735023
0.909804 0.786098 0.735115
0.909804 0.785095 0.735212
0.263386 0.849020 0.734140
0.271040 0.849020 0.734146
0.289366 0.849020 0.734163
0.565083 0.849020 0.734191
0.667069 0.849020 0.734231
0.775804 0.849020 0.734283
0.862324 0.849020 0.734345
0.909804 0.849020 0.734414
0.909804 0.848228 0.734487
