public/samples/sample_warm_look.cube
# Generated by LUT Builder (Nunik Co.)
TITLE "warm_look_sample"
LUT_3D_SIZE 5
DOMAIN_MIN 0.0 0.0 0.0
DOMAIN_MAX 1.0 1.0 1.0
0.065951 0.015381 0.000000
0.160318 0.000000 0.000000
0.594536 0.000000 0.000000
0.819099 0.000000 0.000000
0.909804 0.000000 0.000000
0.074841 0.136830 0.000000
0.162660 0.133947 0.000000
0.594297 0.128790 0.000000
0.818836 0.122759 0.000000
0.909804 0.115409 0.000000
0.111172 0.518707 0.000000
0.175644 0.517743 0.000000
0.597635 0.515276 0.000000
0.819655 0.511863 0.000000
0.909804 0.507878 0.000000
0.144731 0.733052 0.000000
0.194751 0.732600 0.000000
0.605315 0.731291 0.000000
0.822496 0.729208 0.000000
0.909804 0.726560 0.000000
0.173556 0.849020 0.000000
0.214671 0.849020 0.000000
0.615445 0.849020 0.000000
0.827268 0.849020 0.000000
0.909804 0.849020 0.000000
0.092073 0.000522 0.086683
0.173480 0.000000 0.086696
0.600014 0.000000 0.084808
0.822365 0.000000 0.080973
0.909804 0.000000 0.074987
0.104192 0.134238 0.081940
0.175265 0.131856 0.081495
0.600047 0.127098 0.079731
0.822171 0.121209 0.076040
0.909804 0.113946 0.070083
0.128422 0.517824 0.065572
0.185870 0.516917 0.065055
0.602832 0.514556 0.063238
0.822657 0.511235 0.059431
0.909804 0.507317 0.052961
0.155155 0.732636 0.024949
0.202067 0.732196 0.023962
0.609525 0.730914 0.020491
0.825078 0.728865 0.013156
0.909804 0.726248 0.001568
0.180598 0.849020 0.000000
0.220101 0.849020 0.000000
0.618866 0.849020 0.000000
0.829472 0.849020 0.000000
0.909804 0.849020 0.000000
0.156291 0.000000 0.401521
0.206079 0.000000 0.401749
0.615663 0.000000 0.401968
0.831244 0.000000 0.401786
0.909804 0.000000 0.401091
0.156195 0.127609 0.400979
0.205722 0.126035 0.401039
0.615225 0.122232 0.401061
0.830880 0.116842 0.400790
0.909804 0.109765 0.400075
0.165252 0.515375 0.398129
0.210693 0.514603 0.398104
0.616516 0.512512 0.397975
0.830833 0.509434 0.397605
0.909804 0.505687 0.396870
0.181296 0.731412 0.392380
0.221511 0.731003 0.392327
0.621283 0.729798 0.392139
0.832454 0.727843 0.391728
0.909804 0.725312 0.391003
0.199880 0.849020 0.383648
0.235417 0.849020 0.383586
0.628826 0.849020 0.383380
0.835996 0.849020 0.382962
0.909804 0.849020 0.382266
0.209341 0.000000 0.617335
0.244988 0.000000 0.617563
0.638423 0.000000 0.618054
0.845113 0.000000 0.618541
0.909804 0.000000 0.618857
0.207740 0.117973 0.617493
0.243733 0.116938 0.617628
0.637626 0.114007 0.617951
0.844593 0.109188 0.618308
0.909804 0.102292 0.618548
0.209442 0.511447 0.617045
0.244590 0.510833 0.617099
0.637443 0.509086 0.617239
0.843978 0.506355 0.617403
0.909804 0.502868 0.617503
0.217105 0.729325 0.615341
0.250179 0.728960 0.615359
0.639990 0.727872 0.615401
0.844637 0.726064 0.615440
0.909804 0.723671 0.615426
0.228739 0.849020 0.612281
0.259365 0.849020 0.612282
0.645240 0.849020 0.612277
0.847057 0.849020 0.612250
0.909804 0.849020 0.612170
0.258148 0.000000 0.734779
0.285588 0.000000 0.734968
0.665949 0.000000 0.735455
0.863243 0.000000 0.736098
0.909804 0.000000 0.736739
0.256386 0.105140 0.735077
0.284114 0.104371 0.735217
0.664959 0.101965 0.735596
0.862603 0.097521 0.736130
0.909804 0.090598 0.736690
0.254950 0.506248 0.735400
0.282711 0.505767 0.735478
0.663659 0.504342 0.735703
0.861469 0.501976 0.736049
0.909804 0.498793 0.736445
0.257284 0.726417 0.735156
0.284382 0.726102 0.735198
0.664170 0.725145 0.735323
0.861143 0.723514 0.735525
0.909804 0.721296 0.735771
0.263386 0.849020 0.734140
0.289366 0.849020 0.734163
0.667069 0.849020 0.734231
0.862324 0.849020 0.734345
0.909804 0.848228 0.734487
